docs/images/icons/telegramm.svg

<svg width="20" height="20" viewBox="0 0 20 20" fill="none" xmlns="http://www.w3.org/2000/svg">
<path fill-rule="evenodd" clip-rule="evenodd" d="M15.5673 16.0821V16.0805L15.5818 16.046L18 3.9036V3.86505C18 3.56229 17.8871 3.29808 17.6436 3.13988C17.4299 3.00095 17.184 2.99131 17.0114 3.00416C16.8508 3.01863 16.6923 3.05095 16.5389 3.10053C16.4735 3.12153 16.4089 3.14511 16.3454 3.1712L16.3349 3.17521L2.8529 8.44254L2.84887 8.44414C2.80788 8.45808 2.76776 8.47444 2.72873 8.49313C2.63284 8.53603 2.54085 8.58708 2.45376 8.64571C2.2804 8.76457 1.95061 9.04403 2.00624 9.48733C2.05221 9.85513 2.3062 10.088 2.47795 10.2093C2.57933 10.28 2.68832 10.3393 2.80291 10.386L2.82871 10.3972L2.83677 10.3996L2.84242 10.402L5.20177 11.193C5.19371 11.34 5.20822 11.4902 5.24773 11.6387L6.42902 16.103C6.49355 16.3463 6.633 16.5634 6.82777 16.7238C7.02255 16.8842 7.26287 16.9798 7.51498 16.9971C7.76709 17.0145 8.01833 16.9528 8.23342 16.8206C8.44851 16.6885 8.61663 16.4926 8.71419 16.2604L10.5591 14.2961L13.7272 16.7149L13.7724 16.7342C14.0602 16.8595 14.3287 16.8988 14.5747 16.8659C14.8206 16.8322 15.0157 16.7294 15.1625 16.613C15.3322 16.4759 15.4675 16.3013 15.5576 16.103L15.564 16.0894L15.5665 16.0845L15.5673 16.0821ZM6.41692 11.332C6.40384 11.2824 6.40695 11.23 6.4258 11.1824C6.44465 11.1347 6.47826 11.0943 6.52175 11.067L14.5214 6.00763C14.5214 6.00763 14.9924 5.72255 14.9754 6.00763C14.9754 6.00763 15.0593 6.05742 14.8069 6.29112C14.5682 6.51357 9.10526 11.7664 8.55211 12.2981C8.52136 12.3278 8.49981 12.3657 8.49002 12.4073L7.59821 15.7962L6.41692 11.3312V11.332Z" fill="#BDBDC0"/>
</svg>

<svg width="20" height="20" fill="none" xmlns="http://www.w3.org/2000/svg"><path fill-rule="evenodd" clip-rule="evenodd" d="M15.567 16.082v-.002l.015-.034L18 3.904v-.039c0-.303-.113-.567-.356-.725-.214-.14-.46-.149-.633-.136a2.17 2.17 0 0 0-.666.167l-.01.004L2.853 8.443l-.004.001a1.832 1.832 0 0 0-.395.202c-.174.119-.503.398-.448.841.046.368.3.601.472.722.101.071.21.13.325.177l.026.011.008.003.005.002 2.36.791c-.008.147.006.297.046.446l1.181 4.464a1.204 1.204 0 0 0 1.086.894 1.213 1.213 0 0 0 1.2-.737l1.844-1.964 3.168 2.419.045.02c.288.125.557.164.803.13.246-.033.44-.136.588-.252a1.4 1.4 0 0 0 .395-.51l.006-.014.002-.005.001-.002Zm-9.15-4.75a.24.24 0 0 1 .105-.265l8-5.06s.47-.284.453 0c0 0 .084.05-.168.284-.239.223-5.702 5.475-6.255 6.007a.223.223 0 0 0-.062.11l-.892 3.388-1.181-4.465v.001Z" fill="#BDBDC0"/></svg>
